assets/img/index__slide1-1.svg

<svg xmlns="http://www.w3.org/2000/svg" viewBox="0 0 66 66" enable-background="new 0 0 66 66"><style type="text/css">.st0{fill:#262626;}</style><path class="st0" d="M58.1.1h-22.8c-.9 0-1.7.3-2.3.9-.6-.6-1.4-.9-2.3-.9h-22.8c-1.8 0-3.3 1.5-3.3 3.3v59.2c0 1.8 1.5 3.3 3.3 3.3h22.8c.9 0 1.7-.3 2.3-.9.6.6 1.4.9 2.3.9h22.8c1.8 0 3.3-1.5 3.3-3.3v-59.2c0-1.8-1.5-3.3-3.3-3.3zm-26.2 4.5h-1.2c-.6 0-1.1.5-1.1 1.1 0 .6.5 1.1 1.1 1.1h1.2v52.5h-1.2c-.6 0-1.1.5-1.1 1.1 0 .6.5 1.1 1.1 1.1h1.2v1.2c0 .7-.5 1.2-1.2 1.2h-22.8c-.7 0-1.2-.5-1.2-1.2v-59.3c0-.7.5-1.2 1.2-1.2h22.8c.7 0 1.2.5 1.2 1.2v1.2zm27.4 58c0 .7-.5 1.2-1.2 1.2h-22.8c-.7 0-1.2-.5-1.2-1.2v-1.2h1.2c.6 0 1.1-.5 1.1-1.1 0-.6-.5-1.1-1.1-1.1h-1.2v-52.4h1.2c.6 0 1.1-.5 1.1-1.1 0-.6-.5-1.1-1.1-1.1h-1.2v-1.2c0-.7.5-1.2 1.2-1.2h22.8c.7 0 1.2.5 1.2 1.2v59.2zm0 0M52.9 8h-12.5c-2.2 0-3.9 1.8-3.9 3.9 0 2.2 1.8 3.9 3.9 3.9h12.5c2.2 0 3.9-1.8 3.9-3.9 0-2.1-1.7-3.9-3.9-3.9zm0 5.7h-12.5c-1 0-1.8-.8-1.8-1.8s.8-1.8 1.8-1.8h12.5c1 0 1.8.8 1.8 1.8s-.8 1.8-1.8 1.8zm0 0M53.5 20.4c.6 0 1.1-.5 1.1-1.1 0-.6-.5-1.1-1.1-1.1h-13.7c-.6 0-1.1.5-1.1 1.1 0 .6.5 1.1 1.1 1.1h13.7zm0 0M36.5 29.6c0 .6.5 1.1 1.1 1.1h15.9c.6 0 1.1-.5 1.1-1.1 0-.6-.5-1.1-1.1-1.1h-15.9c-.6 0-1.1.5-1.1 1.1zm0 0M37.6 35.2h11.4c.6 0 1.1-.5 1.1-1.1 0-.6-.5-1.1-1.1-1.1h-11.4c-.6 0-1.1.5-1.1 1.1 0 .7.5 1.1 1.1 1.1zm0 0M55.8 33.1h-2.3c-.6 0-1.1.5-1.1 1.1 0 .6.5 1.1 1.1 1.1h2.3c.6 0 1.1-.5 1.1-1.1-.1-.6-.5-1.1-1.1-1.1zm0 0M37.6 39.8h15.9c.6 0 1.1-.5 1.1-1.1 0-.6-.5-1.1-1.1-1.1h-15.9c-.6 0-1.1.5-1.1 1.1 0 .6.5 1.1 1.1 1.1zm0 0M37.6 44.3h11.4c.6 0 1.1-.5 1.1-1.1 0-.6-.5-1.1-1.1-1.1h-11.4c-.6 0-1.1.5-1.1 1.1 0 .7.5 1.1 1.1 1.1zm0 0M55.8 42.2h-2.3c-.6 0-1.1.5-1.1 1.1 0 .6.5 1.1 1.1 1.1h2.3c.6 0 1.1-.5 1.1-1.1-.1-.6-.5-1.1-1.1-1.1zm0 0M37.6 48.9h15.9c.6 0 1.1-.5 1.1-1.1 0-.6-.5-1.1-1.1-1.1h-15.9c-.6 0-1.1.5-1.1 1.1 0 .6.5 1.1 1.1 1.1zm0 0M48.9 51.3h-11.3c-.6 0-1.1.5-1.1 1.1 0 .6.5 1.1 1.1 1.1h11.4c.6 0 1.1-.5 1.1-1.1-.1-.6-.6-1.1-1.2-1.1zm0 0M55.8 51.3h-2.3c-.6 0-1.1.5-1.1 1.1 0 .6.5 1.1 1.1 1.1h2.3c.6 0 1.1-.5 1.1-1.1-.1-.6-.5-1.1-1.1-1.1zm0 0M18.2 13.7c-.6 0-1.1.5-1.1 1.1v8h-1.3v-8c0-.6-.5-1.1-1.1-1.1-.6 0-1.1.5-1.1 1.1v8h-1.3v-8c0-.6-.5-1.1-1.1-1.1-.6 0-1.1.5-1.1 1.1v10.2c0 1.8 1.5 3.3 3.3 3.3h.1v24c0 .6.5 1.1 1.1 1.1.6 0 1.1-.5 1.1-1.1v-24h.1c1.8 0 3.3-1.5 3.3-3.3v-10.2c.2-.6-.3-1.1-.9-1.1zm-1.1 11.4c0 .7-.5 1.2-1.2 1.2h-2.3c-.7 0-1.2-.5-1.2-1.2v-.1l4.7.1zm0 0M26.2 15.8c-.1-1.2-1.1-2-2.3-2-1.2 0-2.3 1-2.3 2.3v36.4c0 .6.5 1.1 1.1 1.1s1.1-.5 1.1-1.1v-11.6h1c.9 0 1.8-.4 2.5-1.1.6-.7.9-1.6.9-2.6l-2-21.4zm-.5 22.6c-.2.3-.5.4-.9.4h-1v-22.8c0-.1.1-.1.1-.1.1 0 .1 0 .1.1l2 21.5c0 .3-.1.6-.3.9zm0 0"/></svg>

<?xml version="1.0" encoding="utf-8"?>
<!-- Generator: Adobe Illustrator 19.2.0, SVG Export Plug-In . SVG Version: 6.00 Build 0)  -->
<svg version="1.1" id="Layer_1" xmlns="http://www.w3.org/2000/svg" xmlns:xlink="http://www.w3.org/1999/xlink" x="0px" y="0px"
	 viewBox="0 0 66 66" style="enable-background:new 0 0 66 66;" xml:space="preserve">
<style type="text/css">
	.st0{fill:#262626;}
</style>
<g>
	<path class="st0" d="M58.1,0.1H35.3c-0.9,0-1.7,0.3-2.3,0.9c-0.6-0.6-1.4-0.9-2.3-0.9H7.9c-1.8,0-3.3,1.5-3.3,3.3v59.2
		c0,1.8,1.5,3.3,3.3,3.3h22.8c0.9,0,1.7-0.3,2.3-0.9c0.6,0.6,1.4,0.9,2.3,0.9h22.8c1.8,0,3.3-1.5,3.3-3.3V3.4
		C61.4,1.6,59.9,0.1,58.1,0.1L58.1,0.1z M31.9,4.6h-1.2c-0.6,0-1.1,0.5-1.1,1.1c0,0.6,0.5,1.1,1.1,1.1h1.2v52.5h-1.2
		c-0.6,0-1.1,0.5-1.1,1.1c0,0.6,0.5,1.1,1.1,1.1h1.2v1.2c0,0.7-0.5,1.2-1.2,1.2H7.9c-0.7,0-1.2-0.5-1.2-1.2V3.4
		c0-0.7,0.5-1.2,1.2-1.2h22.8c0.7,0,1.2,0.5,1.2,1.2V4.6z M59.3,62.6c0,0.7-0.5,1.2-1.2,1.2H35.3c-0.7,0-1.2-0.5-1.2-1.2v-1.2h1.2
		c0.6,0,1.1-0.5,1.1-1.1c0-0.6-0.5-1.1-1.1-1.1h-1.2V6.8h1.2c0.6,0,1.1-0.5,1.1-1.1c0-0.6-0.5-1.1-1.1-1.1h-1.2V3.4
		c0-0.7,0.5-1.2,1.2-1.2h22.8c0.7,0,1.2,0.5,1.2,1.2V62.6z M59.3,62.6"/>
	<path class="st0" d="M52.9,8H40.4c-2.2,0-3.9,1.8-3.9,3.9c0,2.2,1.8,3.9,3.9,3.9h12.5c2.2,0,3.9-1.8,3.9-3.9
		C56.8,9.8,55.1,8,52.9,8L52.9,8z M52.9,13.7H40.4c-1,0-1.8-0.8-1.8-1.8c0-1,0.8-1.8,1.8-1.8h12.5c1,0,1.8,0.8,1.8,1.8
		C54.7,12.9,53.9,13.7,52.9,13.7L52.9,13.7z M52.9,13.7"/>
	<path class="st0" d="M53.5,20.4c0.6,0,1.1-0.5,1.1-1.1c0-0.6-0.5-1.1-1.1-1.1H39.8c-0.6,0-1.1,0.5-1.1,1.1c0,0.6,0.5,1.1,1.1,1.1
		H53.5z M53.5,20.4"/>
	<path class="st0" d="M36.5,29.6c0,0.6,0.5,1.1,1.1,1.1h15.9c0.6,0,1.1-0.5,1.1-1.1c0-0.6-0.5-1.1-1.1-1.1H37.6
		C37,28.5,36.5,29,36.5,29.6L36.5,29.6z M36.5,29.6"/>
	<path class="st0" d="M37.6,35.2h11.4c0.6,0,1.1-0.5,1.1-1.1c0-0.6-0.5-1.1-1.1-1.1H37.6c-0.6,0-1.1,0.5-1.1,1.1
		C36.5,34.8,37,35.2,37.6,35.2L37.6,35.2z M37.6,35.2"/>
	<path class="st0" d="M55.8,33.1h-2.3c-0.6,0-1.1,0.5-1.1,1.1c0,0.6,0.5,1.1,1.1,1.1h2.3c0.6,0,1.1-0.5,1.1-1.1
		C56.8,33.6,56.4,33.1,55.8,33.1L55.8,33.1z M55.8,33.1"/>
	<path class="st0" d="M37.6,39.8h15.9c0.6,0,1.1-0.5,1.1-1.1c0-0.6-0.5-1.1-1.1-1.1H37.6c-0.6,0-1.1,0.5-1.1,1.1
		C36.5,39.3,37,39.8,37.6,39.8L37.6,39.8z M37.6,39.8"/>
	<path class="st0" d="M37.6,44.3h11.4c0.6,0,1.1-0.5,1.1-1.1c0-0.6-0.5-1.1-1.1-1.1H37.6c-0.6,0-1.1,0.5-1.1,1.1
		C36.5,43.9,37,44.3,37.6,44.3L37.6,44.3z M37.6,44.3"/>
	<path class="st0" d="M55.8,42.2h-2.3c-0.6,0-1.1,0.5-1.1,1.1c0,0.6,0.5,1.1,1.1,1.1h2.3c0.6,0,1.1-0.5,1.1-1.1
		C56.8,42.7,56.4,42.2,55.8,42.2L55.8,42.2z M55.8,42.2"/>
	<path class="st0" d="M37.6,48.9h15.9c0.6,0,1.1-0.5,1.1-1.1c0-0.6-0.5-1.1-1.1-1.1H37.6c-0.6,0-1.1,0.5-1.1,1.1
		C36.5,48.4,37,48.9,37.6,48.9L37.6,48.9z M37.6,48.9"/>
	<path class="st0" d="M48.9,51.3H37.6c-0.6,0-1.1,0.5-1.1,1.1c0,0.6,0.5,1.1,1.1,1.1h11.4c0.6,0,1.1-0.5,1.1-1.1
		C50,51.8,49.5,51.3,48.9,51.3L48.9,51.3z M48.9,51.3"/>
	<path class="st0" d="M55.8,51.3h-2.3c-0.6,0-1.1,0.5-1.1,1.1c0,0.6,0.5,1.1,1.1,1.1h2.3c0.6,0,1.1-0.5,1.1-1.1
		C56.8,51.8,56.4,51.3,55.8,51.3L55.8,51.3z M55.8,51.3"/>
	<path class="st0" d="M18.2,13.7c-0.6,0-1.1,0.5-1.1,1.1v8h-1.3v-8c0-0.6-0.5-1.1-1.1-1.1c-0.6,0-1.1,0.5-1.1,1.1v8h-1.3v-8
		c0-0.6-0.5-1.1-1.1-1.1c-0.6,0-1.1,0.5-1.1,1.1v10.2c0,1.8,1.5,3.3,3.3,3.3h0.1v24c0,0.6,0.5,1.1,1.1,1.1c0.6,0,1.1-0.5,1.1-1.1
		v-24h0.1c1.8,0,3.3-1.5,3.3-3.3V14.8C19.3,14.2,18.8,13.7,18.2,13.7L18.2,13.7z M17.1,25.1c0,0.7-0.5,1.2-1.2,1.2h-2.3
		c-0.7,0-1.2-0.5-1.2-1.2V25L17.1,25.1L17.1,25.1z M17.1,25.1"/>
	<path class="st0" d="M26.2,15.8c-0.1-1.2-1.1-2-2.3-2c-1.2,0-2.3,1-2.3,2.3v36.4c0,0.6,0.5,1.1,1.1,1.1s1.1-0.5,1.1-1.1V40.9h1
		c0.9,0,1.8-0.4,2.5-1.1c0.6-0.7,0.9-1.6,0.9-2.6L26.2,15.8z M25.7,38.4c-0.2,0.3-0.5,0.4-0.9,0.4h-1V16c0-0.1,0.1-0.1,0.1-0.1
		c0.1,0,0.1,0,0.1,0.1L26,37.5C26,37.8,25.9,38.1,25.7,38.4L25.7,38.4z M25.7,38.4"/>
</g>
</svg>
